!!!OTL@@DE: Der Lindenbaum
!!!COM: Schubert, Franz
!!!CDT: 1826
!!!OMD: M&auml;ssig
!!!LYR: M&uuml;ller, Wilh.
!!!LDT: 1822
!!!OCL: Erk, Ludwig
!!!GCO: Deutscher Liederschatz, Band 2
**kern	**kern	**kern
*staff3	*staff2	*staff1
*Ipiano	*Ipiano	*Ivox
*clefF4	*clefG2	*clefG2
*k[b-]	*k[b-]	*k[b-]
*F:	*F:	*F:
*M3/4	*M3/4	*M3/4
*MM80	*MM80	*MM80
8FF/ 8F/	8c/ 8a/ 8cc/	8cc\
=1	=1	=1
4.FF/ 4.F/	4.c/ 4.a/ 4.cc/	4.cc\
(8FF/L	(8c'/ 8f'/ 8a'/L	8a/
8AA/	8c'/ 8f'/ 8a'/	8a/
8C/J)	8c'/) 8f'/ 8a'/J	8a/
=2	=2	=2
2F\	(4c/ 4f/ 4a/	4a/
.	4A/) 4c/ 4f/	4f/
8r	8r	8r
(8AA/	8c/ 8f/	8f/
=3	=3	=3
2C/)	2c/ 2f/ 2g/	4.g/
.	.	8a/
4C/	4c/ 4e/ 4g/	12b-/L
.	.	12a/J
.	.	12g/
=4	=4	=4
8FF/	8c/ 8f/ 8a/	2a/
8A\ (8c\L	(8a/ 8cc/L	.
8F\ 8A\	8f/ 8a/	.
8A\ 8c\	8a/ 8cc/	.
8G\ 8B-\	8g/ 8b-/	8r
8C\ 8G\J)	8c/) 8g/J	8cc\
=5	=5	=5
8FF/ 8F/	8A/ 8f/	4.cc\
4F\	4c/ 4a/ 4cc/	.
(8FF/L	(8c'/ 8f'/ 8a'/L	8a/
8AA/	8c'/ 8f'/ 8a'/	8a/
8C/J)	8c'/) 8f'/ 8a'/J	8a/
=6	=6	=6
2F\	(4c/ 4f/ 4a/	4a/
.	4A/) 4c/ 4f/	4f/
8r	8r	8r
(8AA/	8c/ 8f/	8f/
=7	=7	=7
2C/)	2c/ 2f/ 2g/	4.g/
.	.	8a/
4C/	4c/ 4e/ 4g/	12b-/L
.	.	12a/J
.	.	12g/
=8	=8	=8
8FF/	8A/ 8c/ 8f/	2f/
8A\ (8c\L	(8a/ 8cc/L	.
8F\ 8A\	8f/ 8a/	.
8A\ 8c\	8a/ 8cc/	.
8G\ 8B-\	8g/ 8b-/	8r
8F\ 8A\J)	8f/) 8a/J	8f/
=9	=9	=9
4.BBn\ 4.G\	4.d/ 4.f/ 4.g/	4.g/
8BB\ 8G\L	(8d'/ 8f'/ 8g'/L	8g/
8BB-\ 8G\	8c'/ 8e'/ 8g'/	8g/
8BB-\ 8G\J	8c'/) 8e'/ 8g'/J	8g/
=10	=10	=10
*^	*^	*
4F/	8.AA\L	8.f/ (8.a/L	4c\	(8.a/L
.	16GG\Jk	16g/ 16b-/Jk	.	16b-/Jk)
4.F/	4.FF\	4.a/ 4.cc/)	4.c\	4.cc\
8ryy	8A\ 8c\	8ryy	8a\ (8cc\	8cc\
*v	*v	*	*	*
*	*v	*v	*
=11	=11	=11
4.B-^\ 4.d^\	4.b-^\ 4.dd^\	4.dd\
8A\ 8c\L	8a/ 8cc/L	8cc\
8F\ 8A\	8f/ 8a/	8a/
8AA\ 8F\J	8c/ 8f/J)	8f/
=12	=12	=12
8.C\ 8.G\L	8.c/ 8.e/ 8.g/L	2g/
(32c\LL	32cc/LL	.
32d\JJJ	32dd/JJJ	.
8.c'\L)	8.cc/L	.
16F\ (16A\Jk	(16f/ 16a/Jk	.
4C\ 4G\)	4e/) 4cc/	8r
.	.	8g/
=13	=13	=13
4.BBn\ 4.G\	4.d/ 4.f/ 4.g/	4.g/
8BB\ 8G\L	(8d'/ 8f'/ 8g'/L	8g/
8BB-\ 8G\	8c'/ 8e'/ 8g'/	8g/
8BB-\ 8G\J	8c'/) 8e'/ 8g'/J	8g/
=14	=14	=14
*^	*^	*
4F/	(8.AA\L	8.f/ (8.a/L	4c\	(8.a/L
.	16GG\Jk	16g/ 16b-/Jk	.	16b-/Jk)
4.F/	4.FF\)	4.a/ 4.cc/)	4.c\	4cc\
.	.	.	.	8r
8ryy	8A\ 8c\	8a\ 8cc\	.	8cc\
*v	*v	*	*	*
*	*v	*v	*
=15	=15	=15
4A\ (4f\	4a\ (4ff\	(4ff\
8A\ 8c\L)	8a/ 8cc/L)	8cc\)
8F\ (8A\	(8f/ 8a/	8a/
8G\ 8B-\	8g/ 8b-/	8b-\
8BB-\ 8G\J)	8c/) 8e/ 8g/J	8g/
=16	=16	=16
[4AA\ [4F\ [4A\	[4c/ [4f/ [4cc/	2cc\
12AA\] 12F\] 12A\L]	12c/] 12f/] 12cc/L]	.
12c\	(12cc/	.
12f\J	12ff/J	.
12a\L	12aa\L	8r
12f\	12ff\	.
.	.	8cc\
12c\J	12cc\J)	.
=17	=17	=17
12F\ 12A\L	12f\ (12a\L	(4ff\
12A\ 12c\	12a\ 12cc\	.
12c\ 12f\J	12cc\ 12ff\J	.
8A\ 8c\L	8a/ 8cc/L	8cc\)
8F\ 8A\	8f/ 8a/	8a/
8.G\ 8.B-\	8.g/ 8.b-/	(12cc\L
.	.	12b-\J)
.	.	12g/
16C\ 16G\Jk	16c/ 16g/Jk)	.
=18	=18	=18
8.FF\ 8.F\L	8.A/ 8.f/L	2f/
(32A\LL	(32a/LL	.
32d\JJJ	32dd/JJJ	.
8.c\L)	8.cc\L)	.
16C\ (16B-\Jk	16g\ (16ee\Jk	.
8F\ 8A\)	8f\ 8ff\)	8r
==	==	==
*-	*-	*-
!!!ENC: Craig Stuart Sapp
!!!END: 2004/05/19/
!!!EFL: 205/600
